images_elementary_svg/cmd/sc_definedbname.svg

<svg viewBox="0 0 16 16" xmlns="http://www.w3.org/2000/svg" xmlns:xlink="http://www.w3.org/1999/xlink"><linearGradient id="a" gradientTransform="matrix(.59436 0 0 .5999 -19.265 -.033)" gradientUnits="userSpaceOnUse" x1="25.132" x2="25.132" y1="15.5" y2="48.396"><stop offset="0" stop-color="#fafafa"/><stop offset="1" stop-color="#e2e1de"/></linearGradient><linearGradient id="b" gradientTransform="matrix(.98704 0 0 .88413 .093 -1.35)" gradientUnits="userSpaceOnUse" x1="7" x2="7" y1="2" y2="9"><stop offset="0" stop-color="#fff"/><stop offset=".5" stop-color="#fff" stop-opacity=".235"/><stop offset=".951" stop-color="#fff" stop-opacity=".157"/><stop offset="1" stop-color="#fff" stop-opacity=".392"/></linearGradient><linearGradient id="c" gradientTransform="matrix(.94103 0 0 1.027 .46 -2.56)" gradientUnits="userSpaceOnUse" x1="7" x2="7" y1="-4" y2="17"><stop offset="0" stop-color="#cdf87e"/><stop offset=".262" stop-color="#a2e34f"/><stop offset=".661" stop-color="#68b723"/><stop offset="1" stop-color="#1d7e0d"/></linearGradient><linearGradient id="d" gradientTransform="matrix(.56057 0 0 .59553 7.5 6.5)" gradientUnits="userSpaceOnUse" x1="3.139" x2="2" y1="8.199" y2="8"><stop offset="0" stop-color="#e4e4e4"/><stop offset="1" stop-color="#fff"/></linearGradient><linearGradient id="e" gradientTransform="matrix(.16834 .03973 .00114 .1974 8.327 4.97)" gradientUnits="userSpaceOnUse" spreadMethod="reflect" x1=".365" x2="28.06" y1="19.599" y2="19.599"><stop offset="0" stop-color="#ffcd7d"/><stop offset=".262" stop-color="#fc8f36"/><stop offset="1" stop-color="#e23a0e"/></linearGradient><linearGradient id="f" gradientTransform="matrix(.12692 .02995 .00085 .14783 9.244 5.505)" gradientUnits="userSpaceOnUse" spreadMethod="reflect" x1="30" x2="-11" y1="30" y2="30"><stop offset="0" stop-color="#ba3d12"/><stop offset="1" stop-color="#db6737"/></linearGradient><g transform="translate(0 2)"><rect fill="url(#a)" height="10" rx=".424" ry=".491" width="5" x="1" y="3"/><path d="m.498-1.998c-.276 0-.5.224-.5.5l.002 14.998c0 .276.224.5.5.5h5.5v-.998h-5.002l-.002-10.002h4.004v2h-4v1h4v3h-4v1h4v3h1v-11h-.002v-2.998h-1v2.998h-4.002v-3h14.004v3h.998v-3.498c0-.276-.224-.5-.5-.5h-15zm9.5 1v2.998h1v-2.998z" fill="#030303" opacity=".32"/></g><path d="m.5 0a.5.5 0 0 0 -.5.5v3.5h.998v-3.002h14.004v3.002h.998v-3.5a.5.5 0 0 0 -.5-.5zm4.5 1v2h-4v1h14v-1h-4v-2h-1v2h-4v-2z" fill="#126400" opacity=".4"/><path d="m.5.52h15.02v3.082h-15.02z" fill="url(#c)"/><path d="m.5.52v3.082l.51-.008-.01-2.594h14v2.602h.518v-3.08z" fill="url(#b)"/><path d="m5 .494h1v3.074h-1zm5 0h1v3.103h-1z" fill="#126400" opacity=".4"/><g stroke-linejoin="round"><path d="m7.493 6.748c.384-.315 1.544-.48 2.044-.085l.013 8.337c-.313.266-1.608.47-2.044.085z" fill="url(#d)" opacity=".366" stroke="#000" stroke-width="1.031"/><path d="m9.443 6.996c-.007-.235.848-.32 1.727-.074.88.243 1.115.655 2.11.938.92.262 2.22-.03 2.214.206l.028 4.587c.01.315-1.208.326-2.205.087-.994-.238-1.18-.7-2.12-.943-.936-.24-1.75.168-1.728-.263z" fill="url(#e)" fill-rule="evenodd" stroke="url(#f)" stroke-width=".991"/></g></svg>

<svg xmlns="http://www.w3.org/2000/svg" xmlns:xlink="http://www.w3.org/1999/xlink" viewBox="0 0 16 16"><defs><linearGradient gradientTransform="matrix(1.38317 0 0 1.41442 -36.243 -3.873)" id="b" gradientUnits="userSpaceOnUse" x1="8.295" x2="8.295" y1="-4.284" y2="16.85"><stop offset="0" stop-color="#cdf87e"/><stop offset=".262" stop-color="#a2e34f"/><stop offset=".661" stop-color="#68b723"/><stop offset="1" stop-color="#1d7e0d"/></linearGradient><linearGradient id="f" gradientTransform="matrix(.59436 0 0 .5999 -19.265 -.033)" gradientUnits="userSpaceOnUse" x1="25.132" x2="25.132" y1="15.5" y2="48.396"><stop offset="0" stop-color="#fafafa"/><stop offset="1" stop-color="#e2e1de"/></linearGradient><linearGradient id="a"><stop offset="0" stop-color="#fff"/><stop offset=".5" stop-color="#fff" stop-opacity=".235"/><stop offset=".951" stop-color="#fff" stop-opacity=".157"/><stop offset="1" stop-color="#fff" stop-opacity=".392"/></linearGradient><linearGradient xlink:href="#a" id="h" x1="7" y1="2" x2="7" y2="9" gradientUnits="userSpaceOnUse" gradientTransform="matrix(.98704 0 0 .88413 .093 -1.35)"/><linearGradient xlink:href="#b" id="g" x1="7" y1="-4" x2="7" y2="17" gradientUnits="userSpaceOnUse" gradientTransform="matrix(.94103 0 0 1.027 .46 -2.56)"/><linearGradient xlink:href="#c" id="i" x1="3.139" y1="8.199" x2="2" y2="8" gradientUnits="userSpaceOnUse" gradientTransform="matrix(.56057 0 0 .59553 7.5 6.5)"/><linearGradient id="c"><stop offset="0" stop-color="#e4e4e4"/><stop offset="1" stop-color="#fff"/></linearGradient><linearGradient x1=".365" y1="19.599" x2="28.06" y2="19.599" id="j" xlink:href="#d" gradientUnits="userSpaceOnUse" gradientTransform="matrix(.16834 .03973 .00114 .1974 8.327 4.97)" spreadMethod="reflect"/><linearGradient id="d"><stop offset="0" stop-color="#ffcd7d"/><stop offset=".262" stop-color="#fc8f36"/><stop offset="1" stop-color="#e23a0e"/></linearGradient><linearGradient x1="30" y1="30" x2="-11" y2="30" id="k" xlink:href="#e" gradientUnits="userSpaceOnUse" gradientTransform="matrix(.12692 .02995 .00085 .14783 9.244 5.505)" spreadMethod="reflect"/><linearGradient id="e"><stop offset="0" stop-color="#ba3d12"/><stop offset="1" stop-color="#db6737"/></linearGradient></defs><g transform="translate(0 2)"><rect height="10" rx=".424" ry=".491" width="5" x="1" y="3" fill="url(#f)"/><path d="M.498-1.998c-.276 0-.5.224-.5.5L0 13.5c0 .276.224.5.5.5H6v-.998H.998L.996 3H5v2H1v1h4v3H1v1h4v3h1V2h-.002V-.998h-1V2H.996v-3H15v3h.998v-3.498c0-.276-.224-.5-.5-.5h-15zm9.5 1V2h1V-.998h-1z" opacity=".32" fill="#030303"/></g><path d="M.5 0a.5.5 0 0 0-.5.5V4h.998V.998h14.004V4H16V.5a.5.5 0 0 0-.5-.5zM5 1v2H1v1h14V3h-4V1h-1v2H6V1z" opacity=".4" fill="#126400"/><path d="M.5.52h15.02v3.082H.5z" fill="url(#g)"/><path d="M.5.52v3.082l.51-.008L1 1h14v2.602h.518V.522z" fill="url(#h)"/><path opacity=".4" fill="#126400" d="M5 .494h1v3.074H5zm5 0h1v3.103h-1z"/><path d="M7.493 6.748c.384-.315 1.544-.48 2.044-.085L9.55 15c-.313.266-1.608.47-2.044.085z" overflow="visible" color="#000" opacity=".366" fill="url(#i)" stroke="#000" stroke-width="1.031" stroke-linejoin="round"/><path d="M9.443 6.996c-.007-.235.848-.32 1.727-.074.88.243 1.115.655 2.11.938.92.262 2.22-.03 2.214.206l.028 4.587c.01.315-1.208.326-2.205.087-.994-.238-1.18-.7-2.12-.943-.936-.24-1.75.168-1.728-.263z" fill="url(#j)" fill-rule="evenodd" stroke="url(#k)" stroke-width=".991" stroke-linejoin="round"/></svg>
